X:1
T:O Jesus, Receive Me
T:O Jesus, Receive Me
T:Rufus Henry Cornelius
T:Rufus Henry Cornelius, 1912
T:Public Domain Courtesy of the Cyber Hymnal™
C:Rufus Henry Cornelius
Z:Public Domain
Z:Courtesy of the Cyber Hymnal™
%%score ( 1 2 ) ( 3 4 )
L:1/8
Q:1/4=103
M:6/8
K:A
V:1 treble 
V:2 treble 
V:3 bass 
V:4 bass 
V:1
 [CE] | [CE]2 [CE] ([CE][A,C])[CE] | [EA]2 [EA] [EA]3 | [GB]2 [GB] ([GB]2 A) | %4
w: 1.~Dear|Lord, I’ve wan- * dered|far from Thee,|Far from Thee, *|
w: 2.~So|vile and full * of|sin am I,|Sin am I, *|
w: 3.~My|brok- en heart * I|bring to Thee,|Bring to Thee, *|
w: 4.~Dear|Lord, my all * I|yield to Thee,|Yield to Thee, *|
w: 5.~And|now I’m lean- * ing|hard on Thee,|Hard on Thee, *|
 [Ac]2 [Ac] [Ac]2 [CE] | [CE]2 [CE] ([CE][A,C])[CE] | [EA]2 [EA] [EA]2 [Ec] | %7
w: far from Thee; Show|pi- ty now * and|par- don me— O|
w: sin am I, But|no lost soul * wilt|Thou de- ny— O|
w: bring to Thee, Thy|heal- ing balm * is|rich and free— O|
w: yield to Thee; Thy|serv- ant I * would|ev- er be— O|
w: hard on Thee; O|wash my soul * and|set me free— O|
 [FB]2 [FA] [Ac]2 [EB] | [EA]3- [EA]2 z ||"^Refrain" [Ac]3 [FB][FA][DF] | [CE]3 [EA]3 | %11
w: save me at the|cross. *|||
w: save me at the|cross. *|||
w: save me at the|cross. *|O Je- sus, re-|ceive me,|
w: save me at the|cross. *|||
w: save me at the|cross. *|||
 [EB]3 [EB][EA][EB] | [Ec]3 [EA]3 | [Ac]3 [FB][FA][DF] | [CE]3 [EA]2 [Ec] | [FB]2 [FA] [Ac]2 [EB] | %16
w: |||||
w: |||||
w: No more will I|grieve Thee,|Thou pre- cious Re-|deem- er, O|save me at the|
w: |||||
w: |||||
 [EA]3- [EA]2 z |] %17
w: |
w: |
w: cross. *|
w: |
w: |
V:2
 x | x6 | x6 | x5 A | x6 | x6 | x6 | x6 | x6 || x6 | x6 | x6 | x6 | x6 | x6 | x6 | x6 |] %17
V:3
 [A,,A,] | [A,,A,]2 [A,,A,] (A,E,)[A,,A,] | [A,,C]2 [A,,C] [A,,C]3 | [E,D]2 [E,D] (D2 C) | %4
 [A,E]2 [A,E] [A,E]2 [A,,A,] | [A,,A,]2 [A,,A,] (A,E,)[A,,A,] | [A,,C]2 [A,,C] [A,,C]2 [A,,E] | %7
 [D,D]2 [D,F] [E,E]2 [E,D] | [A,,C]3- [A,,C]2 z || [A,E]3 [D,D][D,D][D,A,] | [A,,A,]3 [C,A,]3 | %11
 [E,G,]3 [E,G,][C,A,][E,G,] | A,3 [A,C]3 | [A,E]3 [D,D][D,D][D,A,] | [A,,A,]3 [A,,C]2 [A,,E] | %15
 [D,D]2 [D,F] [E,E]2 [E,D] | [A,,C]3- [A,,C]2 z |] %17
V:4
 x | x3 A,,2 x | x6 | x3 E,3 | x6 | x3 A,,2 x | x6 | x6 | x6 || x6 | x6 | x6 | A,3 x3 | x6 | x6 | %15
 x6 | x6 |] %17

